X: 24688
T: MacLeod's Farewell
R: reel
M: 4/4
K: Dmajor
|:F2 BF AFEF|D3E FABd|e2 fd efdB|ABde dBAG|
F2 BF AFEF|D3E FABd|e2 fd efdB|ABde d4:|
|:A3 f edfd|A3 f edfd|ABdA BdAB|dBAF EFDE|
F2 BF AFEF|D3E FABd|e2 fd efdB|ABde d4:|

